src/assets/icons/property_management.svg

<svg width="13" height="13" viewBox="0 0 13 13" fill="none" xmlns="http://www.w3.org/2000/svg">
<path d="M7.51641 3.95156H8.11641C8.27554 3.95156 8.42815 3.88835 8.54067 3.77583C8.65319 3.6633 8.71641 3.51069 8.71641 3.35156C8.71641 3.19243 8.65319 3.03982 8.54067 2.9273C8.42815 2.81478 8.27554 2.75156 8.11641 2.75156H7.51641C7.35728 2.75156 7.20466 2.81478 7.09214 2.9273C6.97962 3.03982 6.91641 3.19243 6.91641 3.35156C6.91641 3.51069 6.97962 3.6633 7.09214 3.77583C7.20466 3.88835 7.35728 3.95156 7.51641 3.95156ZM7.51641 6.35156H8.11641C8.27554 6.35156 8.42815 6.28835 8.54067 6.17583C8.65319 6.0633 8.71641 5.91069 8.71641 5.75156C8.71641 5.59243 8.65319 5.43982 8.54067 5.3273C8.42815 5.21478 8.27554 5.15156 8.11641 5.15156H7.51641C7.35728 5.15156 7.20466 5.21478 7.09214 5.3273C6.97962 5.43982 6.91641 5.59243 6.91641 5.75156C6.91641 5.91069 6.97962 6.0633 7.09214 6.17583C7.20466 6.28835 7.35728 6.35156 7.51641 6.35156ZM4.51641 3.95156H5.11641C5.27554 3.95156 5.42815 3.88835 5.54067 3.77583C5.65319 3.6633 5.71641 3.51069 5.71641 3.35156C5.71641 3.19243 5.65319 3.03982 5.54067 2.9273C5.42815 2.81478 5.27554 2.75156 5.11641 2.75156H4.51641C4.35728 2.75156 4.20466 2.81478 4.09214 2.9273C3.97962 3.03982 3.91641 3.19243 3.91641 3.35156C3.91641 3.51069 3.97962 3.6633 4.09214 3.77583C4.20466 3.88835 4.35728 3.95156 4.51641 3.95156ZM4.51641 6.35156H5.11641C5.27554 6.35156 5.42815 6.28835 5.54067 6.17583C5.65319 6.0633 5.71641 5.91069 5.71641 5.75156C5.71641 5.59243 5.65319 5.43982 5.54067 5.3273C5.42815 5.21478 5.27554 5.15156 5.11641 5.15156H4.51641C4.35728 5.15156 4.20466 5.21478 4.09214 5.3273C3.97962 5.43982 3.91641 5.59243 3.91641 5.75156C3.91641 5.91069 3.97962 6.0633 4.09214 6.17583C4.20466 6.28835 4.35728 6.35156 4.51641 6.35156ZM11.7164 11.1516H11.1164V0.951563C11.1164 0.792433 11.0532 0.63982 10.9407 0.527298C10.8281 0.414777 10.6755 0.351563 10.5164 0.351562H2.11641C1.95728 0.351563 1.80466 0.414777 1.69214 0.527298C1.57962 0.63982 1.51641 0.792433 1.51641 0.951563V11.1516H0.916406C0.757276 11.1516 0.604664 11.2148 0.492142 11.3273C0.37962 11.4398 0.316406 11.5924 0.316406 11.7516C0.316406 11.9107 0.37962 12.0633 0.492142 12.1758C0.604664 12.2883 0.757276 12.3516 0.916406 12.3516H11.7164C11.8755 12.3516 12.0281 12.2883 12.1407 12.1758C12.2532 12.0633 12.3164 11.9107 12.3164 11.7516C12.3164 11.5924 12.2532 11.4398 12.1407 11.3273C12.0281 11.2148 11.8755 11.1516 11.7164 11.1516ZM6.91641 11.1516H5.71641V8.75156H6.91641V11.1516ZM9.91641 11.1516H8.11641V8.15156C8.11641 7.99243 8.05319 7.83982 7.94067 7.7273C7.82815 7.61478 7.67554 7.55156 7.51641 7.55156H5.11641C4.95728 7.55156 4.80466 7.61478 4.69214 7.7273C4.57962 7.83982 4.51641 7.99243 4.51641 8.15156V11.1516H2.71641V1.55156H9.91641V11.1516Z" fill="#E2C576"/>
</svg>

<svg xmlns="http://www.w3.org/2000/svg" width="13" height="13" fill="none"><path fill="#E2C576" d="M7.516 3.952h.6a.6.6 0 1 0 0-1.2h-.6a.6.6 0 0 0 0 1.2m0 2.4h.6a.6.6 0 1 0 0-1.2h-.6a.6.6 0 0 0 0 1.2m-3-2.4h.6a.6.6 0 1 0 0-1.2h-.6a.6.6 0 0 0 0 1.2m0 2.4h.6a.6.6 0 1 0 0-1.2h-.6a.6.6 0 0 0 0 1.2m7.2 4.8h-.6V.952a.6.6 0 0 0-.6-.6h-8.4a.6.6 0 0 0-.6.6v10.2h-.6a.6.6 0 1 0 0 1.2h10.8a.6.6 0 0 0 0-1.2m-4.8 0h-1.2v-2.4h1.2zm3 0h-1.8v-3a.6.6 0 0 0-.6-.6h-2.4a.6.6 0 0 0-.6.6v3h-1.8v-9.6h7.2z"/></svg>
